X:1
T:The Minstrel's Adieu to his Native Land
T:The Minstrel's Adieu to his Native Land
T:(An Origina Melody) DEDICATED TO THE MISSES WILLIAMS OF ABERPERGWM. Motto, _ When the light of my song is o'er, Then take my harp to your ancient hall; Hang it up at that friendly door Where weary travellers love to call Then if some bard, who roams forsaken, Revive its soft notes in passing along, Oh! let one thought of its master waken Your warmest smile for the child of song. MOORE 
T:John Thomas
T:N° 12.
T:Public Domain - https://imslp.org/wiki/The_Minstrel%27s_Adieu_to_his_Native_Land_(Thomas,_John)
T:Public Domain - https://imslp.org/wiki/The_Minstrel%27s_Adieu_to_his_Native_Land_(Thomas,_John)
T:Public Domain - https://imslp.org/wiki/The_Minstrel%27s_Adieu_to_his_Native_Land_(Thomas,_John)
T:Public Domain - https://imslp.org/wiki/The_Minstrel%27s_Adieu_to_his_Native_Land_(Thomas,_John)
T:Public Domain - https://imslp.org/wiki/The_Minstrel%27s_Adieu_to_his_Native_Land_(Thomas,_John)
T:Public Domain - https://imslp.org/wiki/The_Minstrel%27s_Adieu_to_his_Native_Land_(Thomas,_John)
C:John Thomas
Z:Public Domain - https://imslp.org/wiki/The_Minstrel%27s_Adieu_to_his_Native_Land_(Thomas,_John)
%%score { ( 1 3 ) | ( 2 4 ) }
L:1/8
Q:1/4=60
M:2/4
K:Cb
V:1 treble nm="Harp" snm="Hrp."
V:3 treble 
V:2 bass 
V:4 bass 
V:1
"^(.)"!p!!<(! (.[CEc]2 .[CEc]2)!<)! |!>(! (!arpeggio!c2 B2)!>)! | (.[DFB]2 .[DFB]2) | %3
!>(! (!arpeggio!B2 A2)!>)! |!<(! (.[EAce]2 .[EAce]2)!<)! | !arpeggio!e3 d |!>(! [EAc]2 [D=GB]2 | %7
 [CA]4!>)! ::!f! !arpeggio![EGce]>dc>e | g4 | !arpeggio![CEAc]>BA>c | e4 | %12
 !arpeggio![FAdf]2 !arpeggio![FAdf]2 | !arpeggio![FAdf]2 !arpeggio!e>d | %14
!>(! !arpeggio![FAd]2 !arpeggio!c>B | !arpeggio![D=GB]2 E2!>)! |!p!!<(! (.[CEc]2 .[CEc]2)!<)! | %17
!>(! (c2 B2)!>)! |!<(! ([DFB]2 .[DFB]2)!<)! |!>(! (!arpeggio!B2 A2)!>)! |!<(! (.[EAce]2 .[EAce]2) | %21
 !arpeggio!!>![ce]3!<)!!>(! [Bd] | [EAc]2 [D=GB]2 | [CA]4 :| x/8!>)! | %25
[M:2/4]"^Molto legato"!p! z/!<(! (C/E/A/ c/e/a/!>!c'/-)!<)! |!>(! (c'/b/=g/f/ d/B/=G/F/)!>)! | %27
 z/!<(! (D/F/=G/ B/d/f/!>!b/-)!<)! |!>(! (b/a/e/c/ B/A/E/C/)!>)! | %29
 z/!<(! (E/A/c/ e/a/c'/!>!e'/-)!<)! |!>(! (e'/d'/b/a/ f/d/B/A/)!>)! | c2 B2 | A2 z2 :: %33
!f! z/!<(! (E/G/c/ e/g/c'/e'/)!<)! |!>(! ((a'/g'/)e'/c'/ a/g/e/c/)!>)! | %35
 z/!<(! (E/G/c/ e/g/c'/!mf!e'/)!<)! |!>(! (a'/g'/e'/c'/ a/g/e/c/)!>)! | %37
 z/!mf! (F/A/d/ f/a/d'/f'/) | z/ (F/A/f/) z/ (E/A/e/) | z/ (E/=G/!>(!d/) z/ (E/A/c/) | %40
 z/ (E/=G/B/) z/ (D/G/e/)!>)! | z/!<(! (C/E/A/ c/e/a/!mf!!>!c'/-)!<)! | %42
!>(! (c'/b/=g/f/ d/B/=G/F/)!>)! | z/!<(! (D/F/=G/ B/d/f/!mf!!>!b/-)!<)! | %44
!>(! (b/a/e/c/ B/A/E/C/)!>)! | z/!<(! (E/A/c/ e/a/c'/!mf!!>!e'/-)!<)! | %46
!>(! (e'/d'/b/a/ f/d/B/A/)!>)! | c2 B2 | A2 z2 :| x/8 |"^Leggiero."!pp! z/ A/z/c/z/B/z/A/ | %51
 z/ =G/z/B/z/d/z/f/ | z/ B/z/d/z/c/z/B/ | z/ A/z/c/z/e/z/a/ | z/!<(! c/z/e/z/d/z/c/ | %55
 z/ B/z/d/z/f/z/a/!<)! | z/!>(! e/z/a/z/e/z/=g/ | z/ a/z/e/z/c/z/A/!>)! ::!mf! z/ e/z/d/z/c/z/e/ | %59
 z/ g/z/e/z/c/z/G/ | z/ c/z/B/z/A/z/c/ | z/ e/z/c/z/A/z/E/ | z/ f/z/e/z/d/z/e/ | %63
 z/ f/z/d/z/e/z/c/ | z/!>(! d/z/B/z/c/z/A/ | z/ =G/z/B/!>)!z/e/z/E/ |!pp! z/ A/z/c/z/B/z/A/ | %67
 z/ =G/z/B/z/d/z/f/ | z/ B/z/d/z/c/z/B/ | z/ A/z/c/z/e/z/a/ | z/!<(! c/z/e/z/d/z/c/ | %71
 z/ B/z/d/z/f/z/a/!<)! |!mf! z/!>(! e/z/a/z/e/z/=g/ | z/ a/z/e/z/c/z/A/ :| x/8!>)! | %75
"^Agitato"!p!!<(! (3z/ (A/B/)!<)!!>(! (3(c/B/A/)!>)!!<(! (3z/ (A/B/)!<)!!>(! (3(c/B/A/)!>)! | %76
!<(! (3z/ (B/c/) (3(d/c/B/)!<)!!>(! (3(e/d/c/) (3(d/c/B/)!>)! | %77
!<(! (3z/ (B/c/)!<)!!>(! (3(d/c/B/)!>)!!<(! (3z/ (B/c/)!<)!!>(! (3(d/c/B/)!>)! | %78
!<(! (3z/ (A/B/) (3(c/B/A/)!<)!!>(! (3(d/c/B/) (3(c/B/A/)!>)! | %79
!<(! (3z/ (c/d/) (3(e/d/c/)!<)!!>(! (3(f/e/d/) (3(e/d/e/)!>)! | %80
 (3(e/d/c/) (3(d/c/B/) (3(e/d/c/) (3(d/c/B/) | (3(d/c/B/) (3(c/B/A/) (3(c/B/A/) (3(B/A/=G/) | %82
 (3A/E/C/ z z2 :: %83
!f!!<(! (3z/ (c/d/)!<)!!>(! (3(e/d/c/)!>)!!<(! (3z/ (c/d/)!<)!!>(! (3(e/d/c/)!>)! | %84
!<(! (3z/ (c/e/) (3(g/e/c/)!<)!!>(! (3(a/e/c/) (3(g/e/c/)!>)! | %85
!<(! (3z/ (A/B/)!<)!!>(! (3(c/B/A/)!>)!!<(! (3z/ (A/B/)!<)!!>(! (3(c/B/A/)!>)! | %86
!<(! (3z/ (A/c/) (3(e/c/A/)!<)!!>(! (3(f/c/A/) (3(e/c/A/)!>)! | %87
!<(! (3z/ (A/d/) (3(f/d/A/)!<)!!>(! (3(g/d/A/) (3(f/d/c/)!>)! | %88
 (3(f/c/A/) (3(e/c/A/) (3(f/c/A/) (3(e/c/A/) | (3(e/=G/E/) (3(d/G/E/) (3(d/A/E/) (3(c/A/E/) | %90
!>(! (3z/ (E/=G/) (3(B/G/E/) (3z/ (_G/d/) (3(e/d/G/)!>)! | %91
!p!!<(! (3z/ (A/B/)!<)!!>(! (3(c/B/A/)!>)!!<(! (3z/ (A/B/)!<)!!>(! (3(c/B/A/)!>)! | %92
!<(! (3z/ (B/c/) (3(d/c/B/)!<)!!>(! (3(e/d/c/) (3(d/c/B/)!>)! | %93
!<(! (3z/ (B/c/)!<)!!>(! (3(d/c/B/)!>)!!<(! (3z/ (B/c/)!<)!!>(! (3(d/c/B/)!>)! | %94
!<(! (3z/ (A/B/) (3(c/B/A/)!<)!!>(! (3(d/c/B/) (3(c/B/A/)!>)! | %95
!<(! (3z/ (c/d/) (3(e/d/c/)!<)!!>(! (3(f/e/d/) (3(e/d/c/)!>)! | %96
 (3(e/d/c/) (3(d/c/B/) (3(e/d/c/) (3(d/c/B/) | (3(d/c/B/) (3(c/B/A/) (3(c/B/A/) (3(B/A/=G/) | %98
 (3A/E/C/ z z2 :| x/8 | %100
[M:2/4]"^Risoluto"!ff![I:staff +1] (A,,/4C,/4E,/4A,/4[I:staff -1] C/4E/4A/4c/4)[I:staff +1] (A,,/4C,/4E,/4A,/4[I:staff -1] C/4E/4A/4c/4) | %101
[I:staff +1] (=G,,/4B,,/4D,/4F,/4 =G,/4B,/4[I:staff -1]D/4F/4 G/4B/4d/4f/4 g/4b/4d'/4f'/4) | %102
[I:staff +1] (G,,/4B,,/4D,/4F,/4[I:staff -1] B,/4D/4F/4B/4)[I:staff +1] (G,,/4B,,/4D,/4F,/4[I:staff -1] B,/4D/4F/4)B/4 | %103
"_(G♯)"[I:staff +1] (A,,/4C,/4E,/4A,/4 A,/4[I:staff -1]C/4E/4A/4 A/4c/4e/4a/4 a/4c'/4e'/4a'/4) | %104
[I:staff +1] (C,/4E,/4A,/4C/4[I:staff -1] E/4A/4c/4e/4)[I:staff +1] (C,/4E,/4A,/4C/4[I:staff -1] E/4A/4c/4e/4) | %105
[I:staff +1] (D,/4F,/4A,/4B,/4[I:staff -1] D/4F/4A/4B/4 d/4f/4a/4b/4 d'/4f'/4a'/4)b'/4 | %106
[I:staff +1] (E,/4A,/4C/4E/4[I:staff -1] A/4c/4e/4a/4)[I:staff +1] (E,/4B,/4D/4E/4[I:staff -1] =G/4B/4e/4g/4) | %107
 x4 :: z/4!<(! (E/4_G/4c/4!<)!!>(! e/4c/4G/4E/4)!>)! z/4!<(! (E/4G/4c/4!<)!!>(! e/4c/4G/4E/4)!>)! | %109
 z/4!<(! (G/4c/4e/4 (g/4)e/4c/4G/4)!<)!!>(! (a/4e/4c/4G/4) (g/4e/4c/4G/4)!>)! | %110
 z/4!<(! (C/4E/4A/4!<)!!>(! c/4A/4E/4C/4)!>)! z/4!<(! (C/4E/4A/4!<)!!>(! c/4A/4E/4C/4)!>)! | %111
 z/4!<(! (E/4A/4c/4) (e/4c/4A/4E/4)!<)!!>(! (f/4c/4A/4E/4) (e/4c/4A/4E/4)!>)! | %112
 z/4!<(! (F/4A/4d/4) (f/4d/4A/4F/4)!<)!!>(! (g/4d/4A/4F/4) (f/4d/4A/4F/4)!>)! | %113
 (f/4c/4A/4E/4) (e/4c/4A/4E/4) (f/4c/4A/4E/4) (e/4c/4A/4E/4) | %114
 (e/4B/4=G/4E/4) (d/4B/4G/4E/4) (d/4A/4E/4C/4) (c/4A/4E/4C/4) | %115
 z/4!<(! (B,/4E/4=G/4!<)!!>(! B/4G/4E/4B,/4)!>)! z/4!<(! (D/4G/4B/4!<)!!>(! e/4B/4G/4D/4)!>)! | %116
 x4 |[I:staff +1] (=G,,/4B,,/4D,/4F,/4 =G,/4B,/4[I:staff -1]D/4F/4 G/4B/4d/4f/4 g/4b/4d'/4f'/4) | %118
[I:staff +1] (=G,,/4B,,/4D,/4F,/4[I:staff -1] B,/4D/4F/4B/4)[I:staff +1] (G,,/4B,,/4D,/4F,/4[I:staff -1] B,/4D/4F/4B/4) | %119
"_(G♯)"[I:staff +1] (A,,/4C,/4E,/4A,/4 A,/4[I:staff -1]C/4E/4A/4 A/4c/4e/4a/4 a/4c'/4e'/4a'/4) | %120
[I:staff +1] (C,/4E,/4A,/4C/4[I:staff -1] E/4A/4c/4)e/4[I:staff +1] (C,/4E,/4A,/4C/4[I:staff -1] E/4A/4c/4e/4) | %121
[I:staff +1] (D,/4F,/4A,/4B,/4[I:staff -1] D/4F/4A/4B/4 d/4f/4a/4b/4 d'/4f'/4a'/4b'/4) | %122
[I:staff +1] (E,/4A,/4C/4E/4[I:staff -1] A/4c/4e/4a/4)[I:staff +1] (E,/4B,/4D/4E/4[I:staff -1] =G/4B/4e/4)g/4 |1 %123
 x4 :|2 x4 || %125
[I:staff +1] (E,,/4A,,/4_C,/4E,/4 A,/4[I:staff -1]C/4E/4A/4 c/4e/4a/4c'/4!8va(! e'/4a'/4c''/4e''/4)!8va)! | %126
[I:staff +1] (E,,/4=G,,/4B,,/4E,/4 =G,/4B,/4[I:staff -1]E/4G/4 B/4e/4g/4b/4!8va(! e'/4g'/4b'/4e''/4)!8va)! | %127
 !fermata!z4 |"^Tempo Primo"!p! (.[CEc]2!<(! .[CEc]2)!<)! |!>(! (!arpeggio!c2 B2)!>)! | %130
!<(! (.[DFB]2 .[DFB]2)!<)! |!>(! (B2 A2)!>)! |!<(! (.[EAce]2 .[EAce]2)!<)! | %133
 !arpeggio!!>![ce]3 [Bd] |!>(! [EAc]2 [D=GB]2 | [CA]4!>)! |] %136
V:2
 [A,,,A,,]2 [A,,A,]2 | [=G,,=G,]4 | [G,,,=G,,]2 [G,,G,]2 | [A,,A,]4 | [C,,C,]2 [C,C]2 | [D,D]4 | %6
 E,2 E,,2 | A,2 A,,2 ::"^(G♭)" !arpeggio![C,E,G,C]2 [CE]2 | [C,C]2 [CE]2 | %10
 !arpeggio![A,,C,E,A,]2 [A,C]2 | [A,,A,]2 [A,C]2 | !arpeggio![D,,F,,A,,D,]2 !arpeggio![D,F,A,D]2 | %13
 !arpeggio![D,,F,,A,,D,]2 !arpeggio![D,F,A,D]2 | [D,,D,]2 [D,D]2 | [E,,E,]2 z2 | %16
 [A,,,A,,]2 [A,,A,]2 | [=G,,=G,]4 | [G,,,=G,,]2 [G,,G,]2 | [A,,A,]4 | [C,,C,]2 [C,C]2 | [D,D]4 | %22
 E,2 E,,2 | A,2 A,,2 :| x/8 |[M:2/4] [A,,,A,,]2 [A,,A,]2 | [=G,,=G,]4 | [G,,,=G,,]2 [G,,G,]2 | %28
 [A,,A,]4 | [C,,C,]2 [C,C]2 | [D,D]4 | E,2 E,,2 | z3/2 A,/ B,,2 :: %33
"^(G♭)" !arpeggio![C,E,G,C]2 [CE]2 | [C,C]2 [CE]2 | !arpeggio![A,,C,E,A,]2 [A,C]2 | %36
 [A,,A,]2 [A,C]2 | !arpeggio![D,,F,,A,,D,]2 [D,F,A,D]2 | [D,,D,]2 [C,C]2 | [B,,B,]2 [A,,A,]2 | %40
 E,2 E,,2 | [A,,,A,,]2 [A,,A,]2 | [=G,,=G,]4 | [G,,,=G,,]2 [G,,G,]2 | [A,,A,]4 | [C,,C,]2 [C,C]2 | %46
 [D,D]4 | E,2 E,,2 | z3/2 (A,/ B,,2) :| x/8 | %50
 !open!A,/"^Sons Harmoniques."z/!open!C/z/!open!B,/z/!open!A,/ z/ | %51
 !open!=G,/z/!open!B,/z/!open!D/z/!open!F/ z/ | !open!B,/z/!open!D/z/!open!C/z/!open!B,/ z/ | %53
[K:treble] !open!A,/z/!open!C/z/!open!E/z/!open!A/ z/ | !open!C/z/!open!E/z/!open!D/z/!open!C/ z/ | %55
 !open!B,/z/!open!D/z/!open!F/z/!open!A/ z/ | !open!E/z/!open!A/z/!open!E/z/!open!=G/ z/ | %57
 !open!A/z/!open!E/z/!open!C/z/!open!A,/ z/ :: !open!E/z/!open!D/z/!open!C/z/!open!E/ z/ | %59
 !open!G/z/!open!E/z/!open!C/z/!open!G,/ z/ | !open!C/z/!open!B,/z/!open!A,/z/!open!C/ z/ | %61
 !open!E/z/!open!C/z/!open!A,/z/!open!E,/ z/ | !open!F/z/!open!E/z/!open!D/z/!open!E/ z/ | %63
 !open!F/z/!open!D/z/!open!E/z/!open!C/ z/ | !open!D/z/!open!B,/z/!open!C/z/!open!A,/ z/ | %65
[K:bass] !open!=G,/z/!open!B,/z/!open!E/z/!open!E,/ z/ | %66
 !open!A,/z/!open!C/z/!open!B,/z/!open!B,/ z/ | !open!=G,/z/!open!B,/z/!open!D/z/!open!F/ z/ | %68
 !open!B,/z/!open!D/z/!open!C/z/!open!B,/ z/ | %69
[K:treble] !open!A,/z/!open!C/z/!open!E/z/!open!A/ z/ | !open!C/z/!open!E/z/!open!D/z/!open!C/ z/ | %71
 !open!B,/z/!open!D/z/!open!F/z/!open!A/ z/ | !open!E/z/!open!A/z/!open!E/z/!open!=G/ z/ | %73
 !open!A/z/!open!E/z/!open!C/z/!open!A,/ z/ :| x/8 |[K:bass] [A,,,A,,]2 [A,,A,]2 | [=G,,=G,]4 | %77
 [G,,,=G,,]2 [G,,G,]2 | [A,,A,]4 | [C,,C,]2 [C,C]2 | [D,,D,]2 [D,D]2 | [E,E]2 [E,,E,]2 | %82
 z (3A,/E,/C,/ A,,2 :: !arpeggio![C,E,G,C]2 [CE]2 | [C,C]2 [CE]2 | !arpeggio![A,,C,E,A,]2 [A,C]2 | %86
 [A,,A,]2 [A,C]2 | [D,,D,]2 [D,D]2 | [C,,C,]2 [C,C]2 | [B,,B,]2 [A,,A,]2 | E,2 E,,2 | %91
 [A,,,A,,]2 [A,,A,]2 | [=G,,=G,]4 | [G,,,=G,,]2 [G,,G,]2 | [A,,A,]4 | [C,,C,]2 [C,C]2 | %96
 [D,,D,]2 [D,D]2 | [E,E]2 [E,,E,]2 | z (3A,/E,/C,/ A,,2 :| x/8 |[M:2/4] x4 | x4 | x4 | x4 | x4 | %105
 x4 | x4 | (A,,/4E,/4A,/4C/4[I:staff -1] E/4A/4c/4a/4)[I:staff +1] [A,,,A,,]2 :: %108
 !arpeggio![C,E,G,C]2[K:treble] [c'e']2 |[K:bass] [C,C]2[K:treble] [c'e']2 | %110
[K:bass] !arpeggio![C,E,G,C]2[K:treble] [c'e']2 |[K:bass] [A,,A,]2[K:treble] [ac']2 | %112
[K:bass] [D,,D,]2 [D,D]2 | [C,,C,]2 [C,C]2 | [B,,B,]2 [A,,A,]2 | E,2 E,,2 | %116
 (A,,/4C,/4E,/4A,/4[I:staff -1] C/4E/4A/4c/4)[I:staff +1] (A,,/4C,/4E,/4A,/4[I:staff -1] C/4E/4A/4)c/4 | %117
[I:staff +1] x4 | x4 | x4 | x4 | x4 | x4 |1 %123
 (A,,/4E,/4A,/4C/4[I:staff -1] E/4A/4c/4a/4)[I:staff +1] [A,,,A,,]2 :|2 %124
 (A,,/4E,/4A,/4=C/4[I:staff -1] E/4A/4=c/4_a/4)[I:staff +1] (D,/4F,/4A,/4D/4[I:staff -1] F/4A/4d/4f/4) || %125
[I:staff +1] x4 | x4 | !fermata!z4 |"^Affettuoso" [A,,,A,,]2 [A,,A,]2 | [=G,,=G,]4 | %130
 [G,,,=G,,]2 [G,,G,]2 | [A,,A,]4 | [C,,C,]2 [C,C]2 | !arpeggio![D,D]4 | E,2 E,,2 | %135
 [A,,A,]2 [A,,,A,,]2 |] %136
V:3
 x4 | !arpeggio!!>![DF]4 | x4 | !arpeggio!!>![CE]4 | x4 | !arpeggio!!>![FAB]4 | x4 | x4 :: x4 | %9
 x4 | x4 | x4 | x4 | x2 !arpeggio![FA]2 | x2 !arpeggio![FA]2 | x4 | x4 | !>![DF]4 | x4 | %19
 !arpeggio!!>![CE]4 | x4 | !arpeggio!!>![FA]4 | x4 | x4 :| x/4 |[M:2/4] x4 | x4 | x4 | x4 | x4 | %30
 x4 | c/A/E/C/ B/=G/E/D/ | A/E/C/ z/ x2 :: x4 | x4 | x4 | x4 | x4 | x4 | x4 | x4 | x4 | x4 | x4 | %44
 x4 | x4 | x4 | c/A/E/C/ B/=G/E/D/ | A/E/C/ z/ x2 :| x/4 | x4 | x4 | x4 | x4 | x4 | x4 | x4 | x4 :: %58
 x4 | x4 | x4 | x4 | x4 | x4 | x4 | x4 | x4 | x4 | x4 | x4 | x4 | x4 | x4 | x4 :| x/4 | x c x c | %76
 x ded | x d x d | x cdc | x efe | ed ed | dc cB | A x3 :: x e x e | x gag | x c x c | x efe | %87
 x fgf | fe fe | ed dc | x B x e | x c x c | x ded | x d x d | x cdc | x efe | ed ed | dc cB | %98
 A x3 :| x/4 |[M:2/4] x4 | x4 | x4 | x4 | x4 | x4 | x4 | x4 :: x4 | x gag | x4 | x efe | x fgf | %113
 fe fe | ed dc | x4 | x4 | x4 | x4 | x4 | x4 | x4 | x4 |1 x4 :|2 x4 || x3!8va(! x!8va)! | %126
 x3!8va(! x!8va)! | x4 | x4 | !arpeggio!!>![DF]4 | x4 | !>![CE]4 | x4 | !arpeggio!!>![FA]4 | x4 | %135
 x4 |] %136
V:4
 x4 | x4 | x4 | x4 | x4 | x4 | x4 | x4 :: x4 | x4 | x4 | x4 | x4 | x4 | x4 | x4 | x4 | x4 | x4 | %19
 x4 | x4 | x4 | x4 | x4 :| x/4 |[M:2/4] x4 | x4 | x4 | x4 | x4 | x4 | x4 | x4 :: x4 | x4 | x4 | %36
 x4 | x4 | x4 | x4 | x4 | x4 | x4 | x4 | x4 | x4 | x4 | x4 | x4 :| x/4 | x4 | x4 | x4 | %53
[K:treble] x4 | x4 | x4 | x4 | x4 :: x4 | x4 | x4 | x4 | x4 | x4 | x4 |[K:bass] x4 | x4 | x4 | x4 | %69
[K:treble] x4 | x4 | x4 | x4 | x4 :| x/4 |[K:bass] x4 | x4 | x4 | x4 | x4 | x4 | x4 | x4 :: x4 | %84
 x4 | x4 | x4 | x4 | x4 | x4 | x4 | x4 | x4 | x4 | x4 | x4 | x4 | x4 | x4 :| x/4 | %100
[M:2/4] A,,2 A,,2 | G,,2 x2 | =G,,2 G,,2 | A,,2 x2 | C,2 C,2 | x4 | E,2 E,2 | A,,2 x2 :: %108
 x2[K:treble] x2 |[K:bass] x2[K:treble] x2 |[K:bass] x2[K:treble] x2 |[K:bass] x2[K:treble] x2 | %112
[K:bass] x4 | x4 | x4 | x4 | A,,2 A,,2 | G,,2 x2 | G,,2 G,,2 | A,,2 x2 | C,2 C,2 | D,2 x2 | %122
 E,2 E,2 |1 A,,2 x2 :|2 A,,2 D,2 || E,,2 x2 | E,,2 x2 | x4 | x4 | x4 | x4 | x4 | x4 | x4 | x4 | %135
 x4 |] %136

